X: 17
T: John Ryan's
Z: put10
S: https://thesession.org/tunes/441#setting52319
R: polka
M: 2/4
L: 1/8
K: Dmaj
|:dd B1/2c1/2d1/2B1/2|AF AF|dd B1/2c1/2d1/2B1/2|AF ED|
dd B1/2c1/2d1/2B1/2|AF Ad1/2e1/2|fd ec|d2 d2:|
|:fd de1/2f1/2|gf ed|fd Ad|fg a3/2g1/2|
fd de1/2f1/2|gf ed|fd ec|d2 d2:|

